brandFactory_export/1.Light/Comprar planes_1Light.svg

<?xml version="1.0" encoding="UTF-8"?>
<svg width="24px" height="24px" viewBox="0 0 24 24" version="1.1" xmlns="http://www.w3.org/2000/svg" xmlns:xlink="http://www.w3.org/1999/xlink">
    <title>1.Light/Comprar planes_1Light</title>
    <g id="Symbols" stroke="none" stroke-width="1" fill="none" fill-rule="evenodd">
        <g id="1.Light/Comprar-planes_1Light" fill="#5CB615" fill-rule="nonzero">
            <path d="M10.1714286,20.3193277 C11.2168067,20.3193277 11.8184874,20.9210084 11.8184874,21.9663866 C11.8184874,23.0117647 11.2201681,23.6134454 10.1714286,23.6134454 C9.12605042,23.6134454 8.52436975,23.0117647 8.52436975,21.9663866 C8.52436975,20.9210084 9.12605042,20.3193277 10.1714286,20.3193277 Z M16.7260504,20.3193277 C17.7714286,20.3193277 18.3731092,20.9210084 18.3731092,21.9663866 C18.3731092,23.0117647 17.7747899,23.6134454 16.7260504,23.6134454 C15.6806723,23.6134454 15.0789916,23.0117647 15.0789916,21.9663866 C15.0789916,20.9210084 15.6806723,20.3193277 16.7260504,20.3193277 Z M10.1714286,20.9915966 C9.49579832,20.9915966 9.19663866,21.2907563 9.19663866,21.9663866 C9.19663866,22.6420168 9.49579832,22.9411765 10.1714286,22.9411765 C10.8470588,22.9411765 11.1462185,22.6420168 11.1462185,21.9663866 C11.1462185,21.2907563 10.8470588,20.9915966 10.1714286,20.9915966 Z M16.7260504,20.9915966 C16.0504202,20.9915966 15.7512605,21.2907563 15.7512605,21.9663866 C15.7512605,22.6420168 16.0504202,22.9411765 16.7260504,22.9411765 C17.4016807,22.9411765 17.7008403,22.6420168 17.7008403,21.9663866 C17.7008403,21.2907563 17.4016807,20.9915966 16.7260504,20.9915966 Z M2.30588235,1.29674049e-13 C3.01176471,1.29674049e-13 3.69747899,0.225210084 4.23529412,0.628571429 C4.78319328,1.03865546 5.14621849,1.61344538 5.2605042,2.24537815 C5.3289433,2.62959767 5.57794508,4.10791547 5.87744166,5.89885198 L9.17936134,5.899 L9.17983193,0.773109244 C9.17983193,0.299159664 9.47563025,1.32338585e-13 9.95630252,1.32338585e-13 L14.7563025,1.32338585e-13 C14.8470588,1.32338585e-13 14.9310924,0.0369747899 14.994958,0.0974789916 L18.6084034,3.71092437 C18.6722689,3.77478992 18.7058824,3.85882353 18.7058824,3.94957983 L18.7053613,5.902 L23.2806723,5.90252101 C23.4655462,5.90252101 23.6168067,6.05378151 23.6168067,6.23865546 C23.6168067,6.26554622 23.6134454,6.29579832 23.6067227,6.32268908 C23.4218487,7.05546218 23.0722689,8.46386555 22.6991597,9.95630252 C22.2487395,11.7647059 21.7815126,13.6403361 21.6403361,14.1848739 C21.3378151,15.3546218 20.9008403,16.2117647 20.312605,16.8033613 C19.7042017,17.4084034 18.9411765,17.7142857 18.0369748,17.7142857 L10.1714286,17.7142857 C9.25378151,17.7142857 8.44033613,17.4084034 7.82521008,16.8268908 C7.1697479,16.2084034 6.74621849,15.3109244 6.56134454,14.1546218 C6.38991597,13.0756303 4.78655462,3.43529412 4.59495798,2.36302521 C4.51092437,1.90252101 4.24201681,1.47563025 3.82857143,1.16638655 C3.40840336,0.847058824 2.86722689,0.672268908 2.30588235,0.672268908 L0.339495798,0.672268908 C0.154621849,0.672268908 0.0033613445,0.521008403 0.0033613445,0.336134454 C0.0033613445,0.151260504 0.154621849,1.29674049e-13 0.339495798,1.29674049e-13 L2.30588235,1.29674049e-13 Z M9.17936134,6.571 L5.98985539,6.57154222 C6.50952502,9.6833757 7.12623235,13.4041932 7.22689076,14.0504202 C7.52941176,15.9798319 8.57815126,17.0453782 10.1714286,17.0453782 L18.0369748,17.0453782 C18.7663866,17.0453782 19.3546218,16.810084 19.8352941,16.3294118 C20.3327731,15.8319328 20.7193277,15.0554622 20.9882353,14.0201681 C21.1294118,13.4789916 21.5932773,11.6033613 22.0470588,9.79159664 C22.3563025,8.54789916 22.6521008,7.35798319 22.8504202,6.57478992 L18.7053613,6.574 L18.7058824,13.0151261 C18.7058824,13.4823529 18.4134454,13.7747899 17.9462185,13.7747899 L17.3411765,13.7781513 L9.95630252,13.7781513 C9.46890756,13.7781513 9.17983193,13.4857143 9.17983193,12.994958 L9.17936134,6.571 Z M14.4133613,0.672 L9.95294118,0.672268908 C9.92268908,0.672268908 9.88907563,0.675630252 9.85882353,0.685714286 L9.8487395,0.730672269 L9.8487395,0.730672269 L9.8487395,12.994958 C9.8487395,13.0285714 9.85210084,13.0621849 9.86218487,13.092437 L9.9092437,13.102521 L9.9092437,13.102521 L9.95630252,13.102521 C10.1670914,13.1038222 11.1208038,13.1046197 12.2393486,13.1051084 L17.9361345,13.1058824 C17.9630252,13.1058824 17.989916,13.102521 18.0134454,13.0957983 C18.0201681,13.0689076 18.0235294,13.0420168 18.0235294,13.0151261 L18.0233613,4.283 L16.4773109,4.28571429 L16.0605042,4.28571429 C15.4789916,4.28235294 15.0420168,4.08067227 14.7630252,3.68739496 C14.5310924,3.35798319 14.4168067,2.90420168 14.4134454,2.30252101 L14.4133613,0.672 Z M16.4168067,10.487395 C16.6016807,10.487395 16.7529412,10.6386555 16.7529412,10.8235294 C16.7529412,11.0084034 16.6016807,11.1596639 16.4168067,11.1596639 L11.1731092,11.1596639 C10.9882353,11.1596639 10.8369748,11.0084034 10.8369748,10.8235294 C10.8369748,10.6386555 10.9882353,10.487395 11.1731092,10.487395 L16.4168067,10.487395 Z M16.4168067,8.19495798 C16.6016807,8.19495798 16.7529412,8.34621849 16.7529412,8.53109244 C16.7529412,8.71596639 16.6016807,8.86722689 16.4168067,8.86722689 L11.1731092,8.86722689 C10.9882353,8.86722689 10.8369748,8.71596639 10.8369748,8.53109244 C10.8369748,8.34621849 10.9882353,8.19495798 11.1731092,8.19495798 L16.4168067,8.19495798 Z M16.4168067,5.89915966 C16.6016807,5.89915966 16.7529412,6.05042017 16.7529412,6.23529412 C16.7529412,6.42016807 16.6016807,6.57142857 16.4168067,6.57142857 L11.1731092,6.57142857 C10.9882353,6.57142857 10.8369748,6.42016807 10.8369748,6.23529412 C10.8369748,6.05042017 10.9882353,5.89915966 11.1731092,5.89915966 L16.4168067,5.89915966 Z M15.0883613,1.15 L15.0890756,2.29915966 C15.092437,3.45210084 15.5596639,3.61008403 16.0638655,3.61344538 L17.5473613,3.613 L15.0883613,1.15 Z" id="Comprar-planes_1Light"></path>
        </g>
    </g>
</svg>

<svg width="24" height="24" viewBox="0 0 24 24" xmlns="http://www.w3.org/2000/svg"><path d="M10.171 20.32c1.046 0 1.647.601 1.647 1.646 0 1.046-.598 1.647-1.647 1.647-1.045 0-1.647-.601-1.647-1.647 0-1.045.602-1.647 1.647-1.647zm6.555 0c1.045 0 1.647.601 1.647 1.646 0 1.046-.598 1.647-1.647 1.647-1.045 0-1.647-.601-1.647-1.647 0-1.045.602-1.647 1.647-1.647zm-6.555.672c-.675 0-.974.299-.974.974 0 .676.299.975.974.975.676 0 .975-.299.975-.975 0-.675-.299-.974-.975-.974zm6.555 0c-.676 0-.975.299-.975.974 0 .676.3.975.975.975.676 0 .975-.299.975-.975 0-.675-.3-.974-.975-.974zM2.306 0c.706 0 1.391.225 1.93.629.547.41.91.984 1.025 1.616.068.385.317 1.863.616 3.654H9.18V.773C9.18.3 9.477 0 9.957 0h4.8c.091 0 .175.037.239.097l3.613 3.614a.333.333 0 01.098.239v1.952h4.575a.337.337 0 01.326.42c-.185.733-.535 2.142-.908 3.634-.45 1.809-.917 3.684-1.059 4.229-.302 1.17-.74 2.027-1.327 2.618-.609.605-1.372.911-2.276.911h-7.866c-.917 0-1.73-.306-2.346-.887-.655-.619-1.079-1.516-1.264-2.672-.171-1.08-1.774-10.72-1.966-11.792a1.941 1.941 0 00-.766-1.197A2.524 2.524 0 002.306.672H.339A.337.337 0 01.003.336C.003.151.155 0 .34 0h1.967zm6.873 6.571H5.99c.52 3.112 1.137 6.833 1.238 7.48.302 1.929 1.351 2.994 2.944 2.994h7.866c.73 0 1.318-.235 1.798-.716.498-.497.884-1.274 1.153-2.309.141-.541.605-2.417 1.06-4.228.308-1.244.604-2.434.802-3.217l-4.145-.001v6.441c0 .467-.292.76-.759.76l-.605.003H9.956c-.487 0-.776-.292-.776-.783V6.571zM14.413.672h-4.46a.304.304 0 00-.094.014l-.01.045v12.264a.31.31 0 00.013.097l.047.01h.047c.211.002 1.165.003 2.283.003h5.697a.287.287 0 00.077-.01.332.332 0 00.01-.08V4.283l-1.546.003h-.416c-.582-.004-1.019-.205-1.298-.599-.232-.329-.346-.783-.35-1.384V.672zm2.004 9.815a.337.337 0 010 .672h-5.244a.337.337 0 01-.336-.335c0-.185.151-.337.336-.337h5.244zm0-2.292c.185 0 .336.151.336.336a.337.337 0 01-.336.336h-5.244a.337.337 0 01-.336-.336c0-.185.151-.336.336-.336h5.244zm0-2.296c.185 0 .336.151.336.336a.337.337 0 01-.336.336h-5.244a.337.337 0 01-.336-.336c0-.185.151-.336.336-.336h5.244zM15.088 1.15l.001 1.15c.003 1.152.47 1.31.975 1.313h1.483L15.088 1.15z" fill="#5CB615" fill-rule="nonzero"/></svg>
